X:61
T:New London Hornpipe. JBu.61
T:Wonder Hornpipe. JBu.61, The
O:England,South Yorkshire
S:Joshua Burnett’s MS,c1835,S.Yorkshire
M:C
L:1/8
Q:1/2=80
R:.hornpipe
Z:vmp.R.Greig.2011
K:Bb
(3FGA|BfdB GecA|BcdBF2(3GFE|DFBd edcB|Acf=ef2(3FGA|
BfdB GecA|BcdB F2dc|Bgfe dcBA|B2B2B2l:|
|:(3dcB|Acf=ef2(3dcB|Acf=ef2(3bag|=egba bagf|(3gag (3f=edc2(3cdB|
BfdB GecA|BcdB F2FE”bar line added”|Dgfe dcBA|B2B2B2:|

